public/images/mountain.svg

<svg width="1512" height="319" viewBox="0 0 1512 319" fill="none" xmlns="http://www.w3.org/2000/svg">
<path d="M1424.52 295.863L1464.8 122.766L1628.47 0.226562L1780.14 3.65423L1853.84 315.572H1424.52V295.863Z" fill="#DA1720"/>
<path d="M1464.8 122.765L1604.47 140.76L1780.14 3.65374L1628.47 0.226074L1464.8 122.765Z" fill="#FF5834"/>
<path d="M1604.48 140.759L1568.49 315.57H1424.52V295.861L1464.8 122.764L1604.48 140.759Z" fill="#E6301F"/>
<path d="M-84.1829 0L-37.433 11.6884L91.132 315.568H-195.219L-84.1829 0Z" fill="#DA1720"/>
<path d="M-117.418 295.863L-77.1429 122.766L86.5282 0.226562L238.202 3.65423L311.897 315.572H-117.418V295.863Z" fill="#DA1720"/>
<path d="M-77.1445 122.765L62.5329 140.76L238.201 3.65374L86.5266 0.226074L-77.1445 122.765Z" fill="#FF5834"/>
<path d="M62.5346 140.759L26.5441 315.57H-117.418V295.861L-77.1429 122.764L62.5346 140.759Z" fill="#E6301F"/>
<path d="M3.96875 80.4722C3.96875 83.8587 16.2706 86.6009 31.4484 86.6009C46.6261 86.6009 58.928 83.8587 58.928 80.4722C58.928 77.0891 46.6261 74.3435 31.4484 74.3435C16.2706 74.3435 3.96875 77.0891 3.96875 80.4722Z" fill="#E6301F"/>
<path d="M-18.3359 95.0058C-18.3359 97.107 -10.6991 98.8105 -1.27987 98.8105C8.13935 98.8105 15.7762 97.107 15.7762 95.0058C15.7762 92.9047 8.13935 91.2012 -1.27987 91.2012C-10.6991 91.2012 -18.3359 92.9047 -18.3359 95.0058Z" fill="#E6301F"/>
<path d="M155.621 23.8818C155.621 25.983 163.258 27.6865 172.677 27.6865C182.096 27.6865 189.733 25.983 189.733 23.8818C189.733 21.7806 182.096 20.0771 172.677 20.0771C163.258 20.0771 155.621 21.7806 155.621 23.8818Z" fill="#E6301F"/>
<path d="M683.277 35.065L595.621 315.568H636.527L747.559 0L683.277 35.065Z" fill="#FF5834"/>
<path d="M747.56 0L794.31 11.6884L922.875 315.568H636.527L747.56 0Z" fill="#DA1720"/>
<path d="M39.0352 212.52L208.825 97.9127H268.254L77.2399 212.52H39.0352Z" fill="#FF5834"/>
<path d="M39.0334 212.52L0.832031 318.637H47.5237L77.2382 212.52H39.0334Z" fill="#E6301F"/>
<path d="M268.251 97.9127L365.878 318.637H47.5234L77.2379 212.52L268.251 97.9127Z" fill="#DA1720"/>
<path d="M1148.11 31.9323L1298.94 315.675H1001.76L989.816 149.909L1148.11 31.9323Z" fill="#DA1720"/>
<path d="M965.925 37.9067L783.734 160.363L989.819 149.909L1148.12 31.9323L965.925 37.9067Z" fill="#FF5834"/>
<path d="M783.735 160.361L706.078 315.672H1001.77L989.82 149.907L783.735 160.361Z" fill="#E6301F"/>
<path d="M880.59 116.465C880.59 119.852 892.892 122.594 908.069 122.594C923.247 122.594 935.549 119.852 935.549 116.465C935.549 113.082 923.247 110.337 908.069 110.337C892.892 110.337 880.59 113.082 880.59 116.465Z" fill="#E6301F"/>
<path d="M858.293 130.999C858.293 133.1 865.93 134.803 875.349 134.803C884.768 134.803 892.405 133.1 892.405 130.999C892.405 128.898 884.768 127.194 875.349 127.194C865.93 127.194 858.293 128.898 858.293 130.999Z" fill="#E6301F"/>
<path d="M1007.39 83.0114C1007.39 85.1126 1015.03 86.8162 1024.45 86.8162C1033.87 86.8162 1041.51 85.1126 1041.51 83.0114C1041.51 80.9103 1033.87 79.2068 1024.45 79.2068C1015.03 79.2068 1007.39 80.9103 1007.39 83.0114Z" fill="#E6301F"/>
<path d="M973.125 51.3039C973.125 53.4051 980.762 55.1086 990.181 55.1086C999.6 55.1086 1007.24 53.4051 1007.24 51.3039C1007.24 49.2028 999.6 47.4993 990.181 47.4993C980.762 47.4993 973.125 49.2028 973.125 51.3039Z" fill="#E6301F"/>
<path d="M912.164 245.482L1185.45 57.3171H1228.76L961.447 245.482H912.164Z" fill="#FF5834"/>
<path d="M961.438 245.482L965.917 315.671H1373.61L1228.75 57.3171L961.438 245.482Z" fill="#DA1720"/>
<path d="M912.162 245.484L889.762 315.672H965.924L961.445 245.484H912.162Z" fill="#E6301F"/>
<path d="M1176.44 176.932L1375.33 53.8068L1498.46 68.011L1337.45 191.136L1176.44 176.932Z" fill="#FF5834"/>
<path d="M1337.45 191.135L1313.77 318.997H1125.11L1176.44 176.931L1337.45 191.135Z" fill="#E6301F"/>
<path d="M1596.41 235.488L1498.45 68.0093L1337.44 191.134L1313.76 318.997H1596.41V235.488Z" fill="#DA1720"/>
<path d="M1399.88 86.4722C1399.88 89.8587 1412.18 92.6009 1427.36 92.6009C1442.54 92.6009 1454.84 89.8587 1454.84 86.4722C1454.84 83.0891 1442.54 80.3435 1427.36 80.3435C1412.18 80.3435 1399.88 83.0891 1399.88 86.4722Z" fill="#E6301F"/>
<path d="M1377.58 101.006C1377.58 103.107 1385.22 104.81 1394.64 104.81C1404.06 104.81 1411.69 103.107 1411.69 101.006C1411.69 98.9046 1404.06 97.201 1394.64 97.201C1385.22 97.201 1377.58 98.9046 1377.58 101.006Z" fill="#E6301F"/>
<path d="M1233.62 160.132C1233.62 162.234 1241.26 163.937 1250.68 163.937C1260.1 163.937 1267.73 162.234 1267.73 160.132C1267.73 158.031 1260.1 156.328 1250.68 156.328C1241.26 156.328 1233.62 158.031 1233.62 160.132Z" fill="#E6301F"/>
<path d="M1291.35 315.568L1566.01 116.877L1536.79 315.568H1291.35Z" fill="#FF5834"/>
<path d="M183.27 176.933L382.163 53.8074L505.289 68.0116L344.281 191.137L183.27 176.933Z" fill="#FF5834"/>
<path d="M344.279 191.136L320.6 318.998H131.941L183.267 176.931L344.279 191.136Z" fill="#E6301F"/>
<path d="M505.284 68.01L652.087 318.997H320.598L344.276 191.135L505.284 68.01Z" fill="#DA1720"/>
<path d="M412.715 77.0476C412.715 80.4342 425.017 83.1763 440.194 83.1763C455.372 83.1763 467.674 80.4342 467.674 77.0476C467.674 73.6645 455.372 70.9189 440.194 70.9189C425.017 70.9189 412.715 73.6645 412.715 77.0476Z" fill="#E6301F"/>
<path d="M390.41 91.5811C390.41 93.6823 398.047 95.3859 407.466 95.3859C416.885 95.3859 424.522 93.6823 424.522 91.5811C424.522 89.48 416.885 87.7765 407.466 87.7765C398.047 87.7765 390.41 89.48 390.41 91.5811Z" fill="#E6301F"/>
<path d="M263.513 163.937C272.933 163.937 280.569 162.234 280.569 160.133C280.569 158.031 272.933 156.328 263.513 156.328C254.093 156.328 246.457 158.031 246.457 160.133C246.457 162.234 254.093 163.937 263.513 163.937Z" fill="#E6301F"/>
<path d="M320.469 315.568L595.131 116.877L565.91 315.568H320.469Z" fill="#FF5834"/>
<path d="M595.127 116.877L648.684 164.292L642.665 315.568H565.906L595.127 116.877Z" fill="#DA1720"/>
</svg>

<svg xmlns="http://www.w3.org/2000/svg" width="1512" height="319" fill="none" xmlns:v="https://vecta.io/nano"><style><![CDATA[.G{fill:#ff5834}.H{fill:#e6301f}.I{fill:#da1720}]]></style><path d="M1424.52 295.863l40.28-173.097L1628.47.227l151.67 3.428 73.7 311.918h-429.32v-19.709z" class="I"/><path d="M1464.8 122.765l139.67 17.995L1780.14 3.654 1628.47.226 1464.8 122.765z" class="G"/><path d="M1604.48 140.759l-35.99 174.811h-143.97v-19.709l40.28-173.097 139.68 17.995z" class="H"/><g class="I"><path d="M-84.183 0l46.75 11.688 128.565 303.88h-286.351L-84.183 0z"/><path d="M-117.418 295.863l40.275-173.097L86.528.227l151.674 3.428 73.695 311.918h-429.315v-19.709z"/></g><path d="M-77.144 122.765L62.533 140.76 238.201 3.654 86.527.226-77.144 122.765z" class="G"/><g class="H"><path d="M62.535 140.759L26.544 315.57h-143.962v-19.709l40.275-173.097 139.678 17.995zM3.969 80.472c0 3.386 12.302 6.129 27.48 6.129s27.48-2.742 27.48-6.129-12.302-6.129-27.48-6.129-27.48 2.746-27.48 6.129z"/><use href="#A"/><path d="M155.621 23.882c0 2.101 7.637 3.805 17.056 3.805s17.056-1.703 17.056-3.805-7.637-3.805-17.056-3.805-17.056 1.703-17.056 3.805z"/></g><path d="M683.277 35.065l-87.656 280.503h40.906L747.559 0l-64.282 35.065z" class="G"/><path d="M747.56 0l46.75 11.688 128.565 303.88H636.527L747.56 0z" class="I"/><path d="M39.035 212.52l169.79-114.607h59.429L77.24 212.52H39.035z" class="G"/><path d="M39.033 212.52L.832 318.637h46.692L77.238 212.52H39.033z" class="H"/><path d="M268.251 97.913l97.627 220.724H47.523L77.238 212.52 268.251 97.913zm879.859-65.981l150.83 283.743h-297.18l-11.944-165.766L1148.11 31.932z" class="I"/><path d="M965.925 37.907L783.734 160.363l206.085-10.454L1148.12 31.932l-182.195 5.974z" class="G"/><path d="M783.735 160.361l-77.657 155.311h295.692l-11.95-165.765-206.085 10.454zm96.855-43.896c0 3.387 12.302 6.129 27.479 6.129s27.48-2.742 27.48-6.129-12.302-6.128-27.48-6.128-27.479 2.745-27.479 6.128zm-22.297 14.534c0 2.101 7.637 3.804 17.056 3.804s17.056-1.703 17.056-3.804-7.637-3.805-17.056-3.805-17.056 1.704-17.056 3.805zm149.097-47.988c0 2.101 7.64 3.805 17.06 3.805s17.06-1.704 17.06-3.805-7.64-3.805-17.06-3.805-17.06 1.704-17.06 3.805zm-34.265-31.707c0 2.101 7.637 3.805 17.056 3.805s17.059-1.704 17.059-3.805-7.64-3.805-17.059-3.805-17.056 1.704-17.056 3.805z" class="H"/><path d="M912.164 245.482L1185.45 57.317h43.31L961.447 245.482h-49.283z" class="G"/><path d="M961.438 245.482l4.479 70.189h407.693L1228.75 57.317 961.438 245.482z" class="I"/><path d="M912.162 245.484l-22.4 70.188h76.162l-4.479-70.188h-49.283z" class="H"/><path d="M1176.44 176.932l198.89-123.125 123.13 14.204-161.01 123.125-161.01-14.204z" class="G"/><path d="M1337.45 191.135l-23.68 127.862h-188.66l51.33-142.066 161.01 14.204z" class="H"/><path d="M1596.41 235.488l-97.96-167.479-161.01 123.125-23.68 127.863h282.65v-83.509z" class="I"/><path d="M1399.88 86.472c0 3.386 12.3 6.129 27.48 6.129s27.48-2.742 27.48-6.129-12.3-6.129-27.48-6.129-27.48 2.746-27.48 6.129zm-22.3 14.534c0 2.101 7.64 3.804 17.06 3.804s17.05-1.703 17.05-3.804-7.63-3.805-17.05-3.805-17.06 1.704-17.06 3.805zm-143.96 59.126c0 2.102 7.64 3.805 17.06 3.805s17.05-1.703 17.05-3.805-7.63-3.804-17.05-3.804-17.06 1.703-17.06 3.804z" class="H"/><path d="M1291.35 315.568l274.66-198.691-29.22 198.691h-245.44zM183.27 176.933L382.163 53.807l123.126 14.204-161.008 123.125-161.011-14.204z" class="G"/><path d="M344.279 191.136L320.6 318.998H131.941l51.326-142.067 161.012 14.205z" class="H"/><path d="M505.284 68.01l146.803 250.987H320.598l23.678-127.862L505.284 68.01z" class="I"/><g class="H"><path d="M412.715 77.048c0 3.387 12.302 6.129 27.479 6.129s27.48-2.742 27.48-6.129-12.302-6.129-27.48-6.129-27.479 2.746-27.479 6.129z"/><use href="#A" x="408.746" y="-3.425"/><path d="M263.513 163.937c9.42 0 17.056-1.703 17.056-3.804s-7.636-3.805-17.056-3.805-17.056 1.703-17.056 3.805 7.636 3.804 17.056 3.804z"/></g><path d="M320.469 315.568L595.131 116.877L565.91 315.568H320.469Z" class="G"/><path d="M595.127 116.877l53.557 47.415-6.019 151.276h-76.759l29.221-198.691z" class="I"/><defs><path id="A" d="M-18.336 95.006c0 2.101 7.637 3.805 17.056 3.805s17.056-1.704 17.056-3.805-7.637-3.805-17.056-3.805-17.056 1.704-17.056 3.805z"/></defs></svg>
